public/images/messages.svg

<svg width="32" height="32" fill="none" xmlns="http://www.w3.org/2000/svg"><path d="M23.97 19.71c0 .35-.02.69-.06 1.01-.3 3.6-2.42 5.38-6.33 5.38h-.53c-.34 0-.66.16-.86.43l-1.6 2.13c-.7.95-1.85.95-2.56 0l-1.6-2.13c-.17-.23-.56-.43-.85-.43h-.53c-4.26 0-6.39-1.05-6.39-6.39v-5.33c0-3.9 1.8-6.03 5.39-6.33.32-.04.65-.05 1-.05h8.53c4.25 0 6.39 2.13 6.39 6.38v5.33z" stroke="#1B31FF" stroke-width="1.8" stroke-linejoin="round"/><path d="M29.3 14.38c0 3.92-1.8 6.03-5.39 6.33.04-.32.06-.65.06-1v-5.33c0-4.25-2.14-6.39-6.39-6.39H9.05c-.35 0-.68.02-1 .06.3-3.59 2.42-5.39 6.33-5.39h8.53c4.26 0 6.39 2.13 6.39 6.39v5.33z" stroke="#1B31FF" stroke-width="1.8" stroke-linejoin="round"/><path d="M17.99 17.66H18M13.32 17.66h.01M8.66 17.66h.01" stroke="#1B31FF" stroke-width="1.8" stroke-linejoin="round" stroke-linecap="round"/></svg>

<svg width="32.000000" height="32.000000" viewBox="0 0 32 32" fill="none" xmlns="http://www.w3.org/2000/svg" xmlns:xlink="http://www.w3.org/1999/xlink">
	<desc>
			Created with Pixso.
	</desc>
	<defs/>
	<path id="Vector" d="M23.97 19.71C23.97 20.06 23.95 20.4 23.91 20.72C23.61 24.32 21.49 26.1 17.58 26.1L17.05 26.1C16.71 26.1 16.39 26.26 16.19 26.53L14.59 28.66C13.89 29.61 12.74 29.61 12.03 28.66L10.43 26.53C10.26 26.3 9.87 26.1 9.58 26.1L9.05 26.1C4.79 26.1 2.66 25.05 2.66 19.71L2.66 14.38C2.66 10.48 4.46 8.35 8.05 8.05C8.37 8.01 8.7 8 9.05 8L17.58 8C21.83 8 23.97 10.13 23.97 14.38L23.97 19.71Z" stroke="#1B31FF" stroke-opacity="1.000000" stroke-width="1.800000" stroke-linejoin="round"/>
	<path id="Vector" d="M29.3 14.38C29.3 18.3 27.5 20.41 23.91 20.71C23.95 20.39 23.97 20.06 23.97 19.71L23.97 14.38C23.97 10.13 21.83 7.99 17.58 7.99L9.05 7.99C8.7 7.99 8.37 8.01 8.05 8.05C8.35 4.46 10.47 2.66 14.38 2.66L22.91 2.66C27.17 2.66 29.3 4.79 29.3 9.05L29.3 14.38Z" stroke="#1B31FF" stroke-opacity="1.000000" stroke-width="1.800000" stroke-linejoin="round"/>
	<g opacity="0.000000">
		<path id="Vector" d="M0 0L32 0L32 32L0 32L0 0ZM1.8 30.2L1.8 1.79L30.19 1.79L30.19 30.2L1.8 30.2Z" fill="#1B31FF" fill-opacity="1.000000" fill-rule="evenodd"/>
	</g>
	<path id="Vector" d="M17.99 17.66L18 17.66" stroke="#1B31FF" stroke-opacity="1.000000" stroke-width="1.800000" stroke-linejoin="round" stroke-linecap="round"/>
	<path id="Vector" d="M13.32 17.66L13.33 17.66" stroke="#1B31FF" stroke-opacity="1.000000" stroke-width="1.800000" stroke-linejoin="round" stroke-linecap="round"/>
	<path id="Vector" d="M8.66 17.66L8.67 17.66" stroke="#1B31FF" stroke-opacity="1.000000" stroke-width="1.800000" stroke-linejoin="round" stroke-linecap="round"/>
</svg>
